P3
# SlopOS Aurora — a small embedded PNM wallpaper.
12 8
15
1 1 4   1 1 4   1 1 5   1 1 5   2 1 6   2 1 6   2 1 6   2 1 6   1 1 5   1 1 5   1 1 4   1 1 4
1 1 5   1 1 5   2 1 6   2 1 7   3 2 8   3 2 8   4 2 9   3 2 8   2 1 7   2 1 6   15 15 15   1 1 5
1 1 5   2 1 6   3 2 8   4 3 9   4 4 10   3 6 11   2 8 12   3 7 12   4 5 10   3 3 9   2 2 7   1 1 6
1 1 6   2 2 7   4 3 9   4 6 11   2 10 13   2 13 13   3 15 12   2 12 13   3 8 12   4 5 10   2 2 8   1 1 6
1 2 6   2 3 8   4 5 10   3 9 12   2 14 12   3 15 10   6 15 10   3 14 12   2 10 13   4 6 11   3 3 9   1 2 7
2 3 7   3 4 8   4 6 10   4 8 11   3 10 11   4 11 10   5 11 10   4 9 11   4 7 10   4 6 9   3 4 8   2 3 7
1 2 5   1 2 5   2 3 6   3 4 7   2 3 6   1 2 5   2 3 6   3 4 7   2 3 6   1 2 5   1 2 5   1 2 5
1 1 3   1 1 3   1 1 3   1 2 4   1 2 4   1 1 3   1 1 3   1 2 4   1 2 4   1 1 3   1 1 3   1 1 3
