P3
# SlopOS Sunset — a second embedded PNM wallpaper for runtime switching.
12 8
15
3 1 5   3 1 5   4 1 6   4 1 6   5 2 7   5 2 7   5 2 7   5 2 7   4 1 6   4 1 6   3 1 5   3 1 5
5 2 7   5 2 7   6 2 7   7 3 7   8 3 7   8 3 7   8 3 7   8 3 7   7 3 7   6 2 7   5 2 7   5 2 7
7 3 7   8 3 7   9 4 7   10 4 6   11 5 6   12 5 5   12 5 5   11 5 6   10 4 6   9 4 7   8 3 7   7 3 7
10 4 6   11 5 6   12 6 5   13 7 5   14 8 4   15 10 4   15 11 5   14 8 4   13 7 5   12 6 5   11 5 6   10 4 6
12 6 5   13 7 5   14 9 5   15 11 5   15 13 7   15 14 9   15 14 9   15 13 7   15 11 5   14 9 5   13 7 5   12 6 5
8 4 6   9 5 6   10 6 6   11 7 6   12 8 6   13 9 6   13 9 6   12 8 6   11 7 6   10 6 6   9 5 6   8 4 6
3 2 5   4 2 5   5 3 5   6 3 5   4 2 4   3 2 4   4 2 4   6 3 5   5 3 5   4 2 5   3 2 5   3 2 5
2 1 3   2 1 3   2 1 3   3 1 3   3 2 3   2 1 3   2 1 3   3 2 3   3 1 3   2 1 3   2 1 3   2 1 3
